!!!COM:	Martini, Johannes
!!!CDT:	~1440///-~1497//
!!!OPR:	Missa In feuers hitz
!!!ONM:	4
!!!OTL:	Sanctus
!!!AGN:	Mass; Sanctus
!!!SCT:	Mar1007d
!!!SCA:	Mar1007d
!!!voices:	3
!!!voices-OPR:	3
**kern	**kern	**kern
*staff3	*staff2	*staff1
*Ivox	*Ivox	*Ivox
*I"Contra	*I"Tenor	*I"Superius
*I'C	*I'T	*I'S
*>[A,B,C]	*>[A,B,C]	*>[A,B,C]
*>A	*>A	*>A
*clefGv2	*clefGv2	*clefG2
*k[]	*k[]	*k[]
*M3/1	*M3/1	*M3/1
*met(O)	*met(O)	*met(O)
!!section: Sanctus
!!!OMD: Sanctus
=1-	=1-	=1-
0g	0.c	1.cc
.	.	4b\
.	.	4a/
1e	.	1g
=2	=2	=2
1c	1e	1cc
2d\	0f	2b\
4c\	.	2.a/
4B\	.	.
1A	.	.
.	.	4g/
.	.	2a/
=3	=3	=3
0G	0g	1b
.	.	2.g/
.	.	4f/
2r	1c	1e
[2g\	.	.
=4	=4	=4
4g\]	1B	2d/
4f\	.	.
2d\	.	1g
2e\	0A	.
2.c\	.	2f#i/
.	.	2.f#i/
4B\	.	.
2c\	.	.
.	.	4e/
=5	=5	=5
1.d	0.G	1g
.	.	1.dd
1B	.	.
2A/	.	2cc\
=6	=6	=6
1.G	1g	2.b\
.	.	4g/
.	1f	2b\
2A/	.	2a/
1c	1e	2g/
.	.	2cc\
=7	=7	=7
2B\	2d\	2dd\
2A/	2c\	2.ee\
1c	1e	.
.	.	4dd\
.	.	1cc
1G	1d	.
.	.	2b\
=8	=8	=8
2r	0c	1cc
2c\	.	.
2.e\	.	2r
.	.	2cc\
4f\	.	.
2g\	1r	[1ee
2a\	.	.
=9	=9	=9
1g	1c	2ee\]
.	.	2dd\
1c	1.e	2cc\
.	.	4b\
.	.	4a/
[1c	.	1g
.	2c\	.
=10	=10	=10
2c\]	1e	1g
2B\	.	.
1A	1f	1a
1G	1g	1b
=11	=11	=11
2A/	2e\	1.cc
1F	1a	.
2G/	2.g\	2b\
1d	.	1a
.	4f#i\	.
.	2f#i\	.
=12	=12	=12
1e	1g	1g
0f	0d	1.a
.	.	4g/
.	.	4f/
=13	=13	=13
2g\	1c	1e
2.a\	.	.
.	2B\	1d
4g\	.	.
1g	2G/	.
.	1A	2r
2f#i\	.	2c/
=14	=14	=14
2g\	2G/	4d/
.	.	4e/
2.f\	1d	4f/
.	.	4g/
.	.	2a/
4e\	.	.
1d	2B\	1g
.	1A	.
2c\	.	2f#i/
=15	=15	=15
1.d	0G	0g
1g	.	.
.	1r	1a
2f\	.	.
=16	=16	=16
1g	1G	1b
1e	1A	1cc
[1d	[1B	2dd\
.	.	[2dd\
=17	=17	=17
1d]	1B]	4dd\]
.	.	4cc\
.	.	4b\
.	.	4a/
0e	0c	1.g
.	.	2a/
=18	=18	=18
1c	1e	2g/
.	.	2cc\
0f	0d	2b\
.	.	1a
.	.	4g/
.	.	4f/
=19	=19	=19
2g\	0.c	2e/
2.e\	.	1g
4d\	.	.
4c\	.	2a/
4B\	.	.
1A	.	2.cc\
.	.	4dd\
=20	=20	=20
1G	0g	1b
1c	.	1ee
2d\	1f	2dd\
2A/	.	2cc\
=21	=21	=21
1c	1e	1.cc
0G	0d	.
.	.	2b\
.	.	2.b\
.	.	4a/
=22	=22	=22
0.gl	0.cl	0.ccl
!!LO:LB:i:g=z
=23||	=23||	=23||
*>B	*>B	*>B
*clefGv2	*clefGv2	*clefG2
*k[]	*k[]	*k[]
*M2/1	*M2/1	*M2/1
*met(C|)	*met(C|)	*met(C|)
!!section: Pleni and Osanna I
!!!OMD: Pleni and Osanna I
0r	0r	1.cc
.	.	2b\
=24	=24	=24
0r	0r	1a
.	.	1g
=25	=25	=25
1.c	0r	2e/
.	.	2.a/
.	.	4g/
2B\	.	[2g/
=26	=26	=26
1A	0r	2g/]
.	.	2f#i/
1G	.	1g
=27	=27	=27
0c	0r	2.e/
.	.	4f/
.	.	2g/
.	.	[2a/
=28	=28	=28
1d	0r	2a/]
.	.	2f/
2.e\	.	1g
4f\	.	.
=29	=29	=29
2g\	0r	1c
1a	.	.
.	.	2r
2f\	.	2d/
=30	=30	=30
1g	0r	2e/
.	.	2.g/
1c	.	.
.	.	4f/
.	.	2g/
=31	=31	=31
2r	0r	2a/
2d\	.	2f/
2e\	.	1g
[2g\	.	.
=32	=32	=32
4g\]	0r	1b
4f\	.	.
2g\	.	.
2a\	.	2cc\
2f\	.	[2dd\
=33	=33	=33
1g	0r	4dd\]
.	.	4cc\
.	.	4b\
.	.	4a/
1e	.	1g
=34	=34	=34
2f\	0r	2a/
2.g\	.	1b
4f\	.	.
4e\	.	[2g/
4d\	.	.
=35	=35	=35
2c\	0r	2g/]
2e\	.	1cc
1d	.	.
.	.	2b\
=36	=36	=36
[0c	0r	1cc
.	.	[1g
=37	=37	=37
0c]	0r	2g/]
.	.	2a/
.	.	2g/
.	.	4f/
.	.	4e/
=38	=38	=38
1r	0r	1d
[1g	.	1c
=39	=39	=39
2g\]	0r	2r
2a\	.	2f/
2g\	.	2e/
4f\	.	[2g/
4e\	.	.
=40	=40	=40
1d	0r	2g/]
.	.	2f/
1c	.	2e/
.	.	4d/
.	.	4c/
=41	=41	=41
2r	0r	2.B/
2f\	.	.
.	.	4A/
2e\	.	1c
[2g\	.	.
=42	=42	=42
2g\]	0r	1r
2f\	.	.
2e\	.	1cc
4d\	.	.
4c\	.	.
=43	=43	=43
2.B\	0r	1dd
4A/	.	.
1c	.	2cc\
.	.	[2a/
=44	=44	=44
1d	0r	2a/]
.	.	2f/
2c\	.	2e/
2B\	.	[2d/
=45	=45	=45
1G	0r	2d/]
.	.	1g
1A	.	.
.	.	2f#i/
=46	=46	=46
2G/	0r	1g
1c	.	.
.	.	2a/
2d\	.	[2b\
=47	=47	=47
1e	0r	2b\]
.	.	2g/
2f\	.	2a/
2d\	.	2b\
=48	=48	=48
2c\	0r	1cc
1e	.	.
.	.	1g
[2c\	.	.
=49	=49	=49
2c\]	0r	2a/
2B\	.	1g
1c	.	.
.	.	[2e/
=50	=50	=50
1G	0r	2e/]
.	.	2d/
1g	.	2e/
.	.	[2c/
=51	=51	=51
2e\	0r	2c/]
2c\	.	1cc
1d	.	.
.	.	2b\
=52	=52	=52
1c	[0c	1cc
[1A	.	[1cc
=53	=53	=53
2A/]	0c]	2cc\]
2G/	.	2b\
2A/	.	2a/
2B\	.	2g/
=54	=54	=54
1c	1e	1g
1A	1f	1a
=55	=55	=55
0G	0g	2.b\
.	.	4cc\
.	.	2dd\
.	.	[2ee\
=56	=56	=56
0A	0c	2ee\]
.	.	2dd\
.	.	1cc
=57	=57	=57
1G	0d	1b
[1d	.	[1a
=58	=58	=58
1d]	1B	2a/]
.	.	2g/
1e	1c	[1g
=59	=59	=59
0c	0A	1g]
.	.	1f#i
=60	=60	=60
1e	[0G	0g
1d	.	.
=61	=61	=61
1B	0G]	1r
1d	.	1dd
=62	=62	=62
1c	0r	1ee
2B\	.	2dd\
2A/	.	2cc\
=63	=63	=63
1G	1r	1b
1B	1g	1dd
=64	=64	=64
1A	1a	1.cc
[1c	1g	.
.	.	4b\
.	.	4a/
=65	=65	=65
2c\]	1e	0g
2d\	.	.
1e	1g	.
=66	=66	=66
1d	1f	1a
2c\	2e\	[1cc
2B\	2d\	.
=67	=67	=67
[0A	0c	2cc\]
.	.	2dd\
.	.	[1ee
=68	=68	=68
0A]	1e	1ee]
.	1f	2dd\
.	.	2cc\
=69	=69	=69
1G	0g	1b
[1B-	.	[1dd
=70	=70	=70
1B-]	1f	2dd\]
.	.	2cc\
1c	1e	[1cc
=71	=71	=71
0G	0d	1cc]
.	.	1b
=72	=72	=72
0gl	0cl	0ccl
!!LO:LB:i:g=z
=73||	=73||	=73||
*>C	*>C	*>C
*clefGv2	*clefGv2	*clefG2
*k[]	*k[]	*k[]
*M2/1	*M2/1	*M2/1
*met(C|)	*met(C|)	*met(C|)
!!section: Benedictus and Osanna II
!!!OMD: Benedictus and Osanna II
0r	0r	0g
=74	=74	=74
0r	0r	1f
.	.	[1g
=75	=75	=75
0g	0r	2g/]
.	.	1e
.	.	4d/
.	.	4c/
=76	=76	=76
1f	0r	1d
2g\	.	1c
[2e\	.	.
=77	=77	=77
2e\]	0r	1g
4d\	.	.
4c\	.	.
1d	.	2f/
.	.	[2a/
=78	=78	=78
1c	0r	2a/]
.	.	4g/
.	.	4f/
1g	.	1e
=79	=79	=79
2f\	0r	1d
1a	.	.
.	.	2c/
4g\	.	2d/
4f\	.	.
=80	=80	=80
1e	0r	2e/
.	.	1g
1d	.	.
.	.	2f/
=81	=81	=81
2c\	0r	2g/
2d\	.	2b\
2e\	.	2cc\
[2g\	.	2b\
=82	=82	=82
2g\]	0r	1a
2f\	.	.
2g\	.	1g
2e\	.	.
=83	=83	=83
2f\	0r	2a/
2e\	.	1cc
1d	.	.
.	.	2b\
=84	=84	=84
0c	0r	1cc
.	.	2g/
.	.	[2a/
=85	=85	=85
1c	0r	2a/]
.	.	2g/
2r	.	1e
2g\	.	.
=86	=86	=86
1a	0r	2.f/
.	.	4e/
2g\	.	1c
2e\	.	.
=87	=87	=87
2.f\	0r	2r
.	.	2d/
4e\	.	.
1c	.	2e/
.	.	[2c/
=88	=88	=88
2r	0r	2c/]
2d\	.	2B/
2e\	.	2c/
[2c\	.	2e/
=89	=89	=89
2c\]	0r	1d
2B\	.	.
2c\	.	2c/
2e\	.	[2cc\
=90	=90	=90
1d	0r	2cc\]
.	.	2b\
1c	.	2cc\
.	.	2a/
=91	=91	=91
2r	0r	2g/
2B\	.	2dd\
2c\	.	2ee\
2A/	.	2cc\
=92	=92	=92
2G/	0r	2.dd\
2d\	.	.
.	.	4cc\
2e\	.	2b\
2c\	.	[2a/
=93	=93	=93
2d\	0r	4a/]
.	.	4g/
2B\	.	1g
1A	.	.
.	.	2f#i/
=94	=94	=94
0G	0r	1g
.	.	1r
=95	=95	=95
1c	0r	1e
1r	.	2f/
.	.	[2g/
=96	=96	=96
1e	0r	4g/]
.	.	4f/
.	.	2g/
2f\	.	2a/
[2g\	.	2g/
=97	=97	=97
4g\]	0r	1e
4f\	.	.
2g\	.	.
2a\	.	2d/
2g\	.	4e/
.	.	4f/
=98	=98	=98
1e	0r	1g
2d\	.	2f/
4e\	.	4e/
4f\	.	4d/
=99	=99	=99
1g	0r	1c
2f\	.	2r
4e\	.	[2g/
4d\	.	.
=100	=100	=100
1c	0r	2g/]
.	.	2a/
2r	.	2b\
[2G/	.	2g/
=101	=101	=101
2G/]	0r	2b\
2A/	.	2cc\
2B\	.	1dd
2G/	.	.
=102	=102	=102
2B\	0r	1g
2c\	.	.
1d	.	2r
.	.	[2dd\
=103	=103	=103
1G	0r	2dd\]
.	.	2ee\
2r	.	2dd\
[2d\	.	[2ff\
=104	=104	=104
2d\]	0r	2ff\]
2e\	.	2gg\
2d\	.	2.ff\
[2f\	.	.
.	.	8ee\L
.	.	8dd\J
=105	=105	=105
2f\]	0r	2cc\
2g\	.	2b\
2f\	.	2a/
4e\	.	[2g/
4d\	.	.
=106	=106	=106
2c\	0r	2g/]
2e\	.	1cc
1d	.	.
.	.	2b\
=107	=107	=107
1c	[0c	1cc
[1A	.	[1cc
=108	=108	=108
2A/]	0c]	2cc\]
2G/	.	2b\
2A/	.	2a/
2B\	.	2g/
=109	=109	=109
1c	1e	1g
1A	1f	1a
=110	=110	=110
0G	0g	2.b\
.	.	4cc\
.	.	2dd\
.	.	[2ee\
=111	=111	=111
0A	0c	2ee\]
.	.	2dd\
.	.	1cc
=112	=112	=112
1G	0d	1b
1r	.	[1a
=113	=113	=113
1d	1B	2a/]
.	.	2g/
1e	1c	[1g
=114	=114	=114
0c	0A	1g]
.	.	1f#i
=115	=115	=115
1e	[0G	0g
1d	.	.
=116	=116	=116
1B	0G]	1r
1d	.	1dd
=117	=117	=117
1c	0r	1ee
2B\	.	1dd
2A/	.	.
=118	=118	=118
1G	1r	1b
1B	1g	1dd
=119	=119	=119
1A	1a	1.cc
[1c	1g	.
.	.	4b\
.	.	4a/
=120	=120	=120
2c\]	1e	0g
2d\	.	.
1e	1g	.
=121	=121	=121
1d	1f	1a
2c\	2e\	[1cc
2B\	2d\	.
=122	=122	=122
[0A	0c	2cc\]
.	.	2dd\
.	.	[1ee
=123	=123	=123
0A]	1e	1ee]
.	1f	2dd\
.	.	2cc\
=124	=124	=124
1G	0g	1b
[1B-	.	[1dd
=125	=125	=125
1B-]	1f	2dd\]
.	.	2cc\
1c	1e	[1cc
=126	=126	=126
0G	0d	1cc]
.	.	1b
=127	=127	=127
0gl	0cl	0ccl
==	==	==
*-	*-	*-
!!!RDF**kern: l=long note in original notation
!!!RDF**kern: i=editorial accidental
!!!ENC:	Chris Gage 10-02-2014
!!!END:	2015/03/07/
!!!EED:	Jesse Rodin
!!!EEV:	2015/03/09/
!!!ONB:	Translated from MusicXML and edited on 2015/03/09/ by Craig Sapp
!!muse2ps: T^@{OPR}^u^@{ONM}{. }@{OTL}^C^@{COM}^i2I150v95,95,150Q16
